Newaita-dark/apps/24/com.github.coralynnmay.goodvibesapp.svg

<svg height="24" viewBox="0 0 24 24" width="24" xmlns="http://www.w3.org/2000/svg" xmlns:xlink="http://www.w3.org/1999/xlink"><linearGradient id="a" gradientUnits="userSpaceOnUse" x1="11.90739" x2="11.90739" y1="21.02545225" y2="22.01773525002"><stop offset="0" stop-opacity=".27451"/><stop offset="1" stop-opacity="0"/></linearGradient><linearGradient id="b"><stop offset="0" stop-opacity=".313726"/><stop offset=".222222" stop-opacity=".27451"/><stop offset="1" stop-opacity="0"/></linearGradient><radialGradient id="c" cx="450.908936" cy="189.579361" gradientTransform="matrix(.00000013 -.0585994 -.105479 -.00000008 39.097986 47.696499)" gradientUnits="userSpaceOnUse" r="21.166656" xlink:href="#b"/><radialGradient id="d" cx="450.908936" cy="189.579361" gradientTransform="matrix(-.00000013 .0585994 .105479 .00000008 -15.28321 -5.645609)" gradientUnits="userSpaceOnUse" r="21.166656" xlink:href="#b"/><radialGradient id="e" cx="450.908936" cy="189.579361" gradientTransform="matrix(-.00000013 -.0585994 .105479 -.00000008 -15.28321 47.696499)" gradientUnits="userSpaceOnUse" r="21.166656" xlink:href="#b"/><radialGradient id="f" cx="450.908936" cy="189.579361" gradientTransform="matrix(.00000013 .0585994 -.105479 .00000008 39.097985 -5.64561)" gradientUnits="userSpaceOnUse" r="21.166656" xlink:href="#b"/><linearGradient id="g" gradientUnits="userSpaceOnUse" x1="7.93826174998" x2="7.93826174998" y1="21.02545025" y2="2.17207850005"><stop offset="0" stop-color="#29b6f6"/><stop offset="1" stop-color="#4fc3f7"/></linearGradient><linearGradient id="h" gradientUnits="userSpaceOnUse" x1="11.907393" x2="11.907393" y1="21.02545025" y2="2.17207850005"><stop offset="0" stop-color="#5c6bc0"/><stop offset="1" stop-color="#7986cb"/></linearGradient><path d="m4.464844 20.953125h14.882812v1.101563h-14.882812zm0 0" fill="url(#a)"/><path d="m19.347656 21.027344h1.988282v-.996094h-1.988282zm0 0" fill="url(#c)"/><path d="m4.464844 21.027344h-1.984375v.992187h1.984375zm0 0" fill="url(#d)"/><path d="m4.464844 21.027344h-1.984375v-.996094h1.984375zm0 0" fill="url(#e)"/><path d="m19.347656 21.027344h1.988282v.992187h-1.988282zm0 0" fill="url(#f)"/><path d="m3.472656 2.171875h16.867188c.550781 0 .996094.445313.996094.992187v16.867188c0 .550781-.445313.996094-.996094.996094h-16.867188c-.546875 0-.992187-.445313-.992187-.996094v-16.867188c0-.546874.445312-.992187.992187-.992187zm0 0" fill="url(#g)"/><path d="m3.472656 2.171875c-.550781 0-.992187.441406-.992187.992187v.125c0-.550781.441406-.992187.992187-.992187h16.867188c.550781 0 .996094.441406.996094.992187v-.125c0-.550781-.445313-.992187-.996094-.992187zm0 0" fill="#e6e6e6" fill-opacity=".392157"/><path d="m3.472656 21.027344c-.550781 0-.992187-.445313-.992187-.996094v-.121094c0 .546875.441406.992188.992187.992188h16.867188c.550781 0 .996094-.445313.996094-.992188v.121094c0 .550781-.445313.996094-.996094.996094zm0 0" fill-opacity=".196078"/><path d="m74.076259-168.671091h359.798975c11.748878 0 21.247971 9.499093 21.247971 21.164646v359.798974c0 11.748878-9.499093 21.247971-21.247971 21.247971h-359.798975c-11.665552 0-21.164645-9.499093-21.164645-21.247971v-359.798974c0-11.665553 9.499093-21.164646 21.164645-21.164646zm0 0" fill="none" stroke="#212121" stroke-linecap="round" stroke-width="3" transform="matrix(.0468795 0 0 .0468795 0 10.079087)"/><path d="m6.019531 15.835938c-1.976562-.515626-2.792969-2.015626-2.34375-4.292969.546875-2.773438 2.484375-4.3125 5.417969-4.296875 4.421875.015625 5.742188.105468 5.714844.378906-.023438.238281-.050782.257812-.390625.296875-.5.054687-.503907-.042969.121093 2.890625.558594 2.617188.613282 2.804688.808594 2.59375.246094-.269531 3.25-5.332031 3.203125-5.40625-.027343-.042969-.230469-.078125-.453125-.078125-.421875 0-.449218-.03125-.351562-.386719.050781-.199218 2.484375-.304687 2.484375-.109375 0 .304688-.171875.496094-.441407.496094-.371093 0-.300781-.105469-2.550781 3.644531-2.824219 4.703125-2.457031 4.230469-3.253906 4.203125-.742187-.027343-.589844.394531-1.578125-4.324219-.601562-2.859374-1.253906-3.644531-3.027344-3.644531-2.015625 0-3.324218 1.890625-3.460937 5.003907-.09375 2.1875 1.128906 3.121093 3.101562 2.359374.527344-.203124.542969-.230468.773438-1.371093.257812-1.273438.257812-1.285157-.335938-1.285157-.460937 0-.460937 0-.402343-.265624.082031-.398438.066406-.394532 1.601562-.371094 1.671875.027344 1.527344-.207032 1.136719 1.878906-.292969 1.554688-.222657 1.480469-1.882813 1.929688-.945312.257812-3.171875.347656-3.890625.15625zm0 0" fill="url(#h)"/><path d="m9.09375 7.289062c-2.933594-.015624-4.871094 1.523438-5.417969 4.296876-.085937.441406-.128906.851562-.121093 1.234374.007812-.332031.046874-.6875.121093-1.0625.546875-2.773437 2.484375-4.3125 5.417969-4.296874 4.101562.015624 5.535156.09375 5.699219.320312.007812-.03125.011719-.070312.015625-.113281.027344-.273438-1.292969-.359375-5.714844-.378907zm10.363281.078126c-.714843 0-1.679687.085937-1.710937.210937-.042969.152344-.0625.246094-.035156.304687.007812-.039062.019531-.082031.035156-.132812.046875-.1875 2.265625-.292969 2.472656-.132812.007812-.046876.011719-.097657.011719-.148438 0-.074219-.339844-.101562-.773438-.101562zm-.964843.816406c-.421876.820312-2.921876 5.019531-3.144532 5.265625-.195312.210937-.25.023437-.808594-2.59375-.300781-1.410157-.453124-2.117188-.480468-2.480469-.027344.289062.121094.972656.480468 2.652344.558594 2.621094.613282 2.804687.808594 2.59375.246094-.269532 3.25-5.332032 3.203125-5.402344-.007812-.015625-.027343-.023438-.058593-.035156zm-8.640626 3.722656c-.726562.003906-.734374.070312-.796874.378906-.027344.117188-.039063.179688-.011719.21875.003906-.015625.007812-.03125.011719-.046875.082031-.398437.066406-.394531 1.601562-.367187.992188.015625 1.347656-.0625 1.386719.3125.042969-.570313-.261719-.46875-1.386719-.488282-.335938-.003906-.597656-.007812-.804688-.007812zm.101563 1.027344c-.015625.191406-.074219.472656-.160156.902344-.230469 1.140624-.246094 1.167968-.773438 1.371093-1.871093.722657-3.070312-.082031-3.105469-2.035156-.03125 2.078125 1.179688 2.949219 3.105469 2.207031.527344-.203125.542969-.230468.773438-1.371094.117187-.582031.183593-.902343.160156-1.074218zm0 0" fill="#fff" fill-opacity=".392157"/><path d="m20.160156 7.804688c-.074218.125-.203125.199218-.371094.199218-.371093 0-.300781-.105468-2.550781 3.644532-2.824219 4.703124-2.457031 4.230468-3.253906 4.203124-.742187-.027343-.589844.394532-1.578125-4.324218-.601562-2.859375-1.253906-3.644532-3.027344-3.644532-2.015625 0-3.324218 1.890626-3.460937 5.003907-.003907.140625-.003907.277343 0 .40625 0-.019531 0-.039063 0-.058594.136719-3.113281 1.445312-5.003906 3.460937-5.003906 1.773438 0 2.425782.785156 3.027344 3.644531.988281 4.71875.835938 4.296875 1.578125 4.324219.796875.027343.429687.5 3.253906-4.203125 2.25-3.75 2.179688-3.644532 2.550781-3.644532.269532 0 .441407-.191406.441407-.496093 0-.019531-.023438-.039063-.070313-.050781zm-5.441406.132812c-.054688.035156-.144531.046875-.300781.066406-.28125.03125-.40625.011719-.347657.519532.039063-.152344.15625-.152344.347657-.171876.339843-.039062.367187-.058593.390625-.300781.003906-.039062-.023438-.078125-.089844-.113281zm3.027344.023438c-.097656.359374-.070313.390624.351562.390624.117188 0 .226563.007813.3125.023438.09375-.171875.148438-.28125.140625-.292969-.027343-.042969-.230469-.078125-.453125-.078125-.1875 0-.296875-.007812-.351562-.042968zm-5.714844 4.589843c-.035156.277344-.128906.683594-.238281 1.28125-.292969 1.550781-.222657 1.476563-1.882813 1.929688-.945312.253906-3.171875.347656-3.890625.15625-1.566406-.410157-2.402343-1.433594-2.460937-2.972657-.0625 1.730469.78125 2.882813 2.460937 3.320313.71875.191406 2.945313.097656 3.890625-.15625 1.660156-.453125 1.589844-.378906 1.882813-1.929687.171875-.921876.296875-1.390626.238281-1.628907zm-2.953125.015625c-.007813.03125-.015625.066406-.023437.105469-.058594.265625-.058594.265625.402343.265625.285157 0 .433594.003906.484375.148438.066406-.492188-.054687-.496094-.484375-.496094-.210937 0-.324219 0-.378906-.023438zm0 0" fill-opacity=".235294"/><path d="m128.404405 122.801075c-42.162641-10.99895-59.577644-42.995894-49.995226-91.574588 11.665553-59.161018 52.994939-91.991216 115.572297-91.657914 94.324326.333301 122.488303 2.249785 121.905025 8.082561-.499952 5.082848-1.08323 5.499475-8.332538 6.332729-10.665648 1.166555-10.748973-.916579 2.583087 61.660778 11.915529 55.828002 13.082084 59.82762 17.248353 55.32805 5.249499-5.749451 69.326713-113.739138 68.326808-115.322321-.583277-.916579-4.916197-1.666507-9.665743-1.666507-8.999141 0-9.582419-.666603-7.499284-8.249212 1.08323-4.249595 52.994939-6.49938 52.994939-2.333111 0 6.499379-3.666316 10.582323-9.415767 10.582323-7.915911 0-6.416054-2.249785-54.411471 77.742576-60.244247 100.323753-52.411662 90.241382-69.410038 89.658105-15.831822-.583278-12.582132 8.415863-33.663452-92.241192-12.832108-60.994175-26.747446-77.742576-64.577167-77.742576-42.995894 0-70.909895 40.329482-73.826283 106.739807-1.999809 46.662211 24.081034 66.576976 66.160349 50.328527 11.248925-4.332919 11.582227-4.916197 16.498424-29.247207 5.499475-27.164072 5.499475-27.414049-7.165982-27.414049-9.832395 0-9.832395 0-8.582514-5.666125 1.749833-8.499188 1.416531-8.415863 34.163404-7.915911 35.663261.583278 32.580222-4.416245 24.247685 40.079506-6.249404 33.1635-4.749547 31.580318-40.162832 41.162736-20.164741 5.499475-67.660205 7.415958-82.992074 3.333015zm0 0" fill="none" stroke="#212121" stroke-width="3" transform="matrix(.0468795 0 0 .0468795 0 10.079087)"/></svg>

<?xml version="1.0" encoding="UTF-8"?>
<svg xmlns="http://www.w3.org/2000/svg" xmlns:xlink="http://www.w3.org/1999/xlink" width="24px" height="24px" viewBox="0 0 24 24" version="1.1">
<defs>
<linearGradient id="linear0" gradientUnits="userSpaceOnUse" x1="254" y1="233.5" x2="254" y2="254.666672" gradientTransform="matrix(0.0468795,0,0,0.0468795,-0.0000028613,10.079089)">
<stop offset="0" style="stop-color:rgb(0%,0%,0%);stop-opacity:0.27451;"/>
<stop offset="1" style="stop-color:rgb(0%,0%,0%);stop-opacity:0;"/>
</linearGradient>
<radialGradient id="radial0" gradientUnits="userSpaceOnUse" cx="450.908936" cy="189.579361" fx="450.908936" fy="189.579361" r="21.166656" gradientTransform="matrix(0.000000130628,-0.0585994,-0.105479,-0.0000000761539,39.097986,47.696499)">
<stop offset="0" style="stop-color:rgb(0%,0%,0%);stop-opacity:0.313726;"/>
<stop offset="0.222222" style="stop-color:rgb(0%,0%,0%);stop-opacity:0.27451;"/>
<stop offset="1" style="stop-color:rgb(0%,0%,0%);stop-opacity:0;"/>
</radialGradient>
<radialGradient id="radial1" gradientUnits="userSpaceOnUse" cx="450.908936" cy="189.579361" fx="450.908936" fy="189.579361" r="21.166656" gradientTransform="matrix(-0.000000130628,0.0585994,0.105479,0.0000000761539,-15.28321,-5.645609)">
<stop offset="0" style="stop-color:rgb(0%,0%,0%);stop-opacity:0.313726;"/>
<stop offset="0.222222" style="stop-color:rgb(0%,0%,0%);stop-opacity:0.27451;"/>
<stop offset="1" style="stop-color:rgb(0%,0%,0%);stop-opacity:0;"/>
</radialGradient>
<radialGradient id="radial2" gradientUnits="userSpaceOnUse" cx="450.908936" cy="189.579361" fx="450.908936" fy="189.579361" r="21.166656" gradientTransform="matrix(-0.000000130628,-0.0585994,0.105479,-0.0000000761539,-15.28321,47.696499)">
<stop offset="0" style="stop-color:rgb(0%,0%,0%);stop-opacity:0.313726;"/>
<stop offset="0.222222" style="stop-color:rgb(0%,0%,0%);stop-opacity:0.27451;"/>
<stop offset="1" style="stop-color:rgb(0%,0%,0%);stop-opacity:0;"/>
</radialGradient>
<radialGradient id="radial3" gradientUnits="userSpaceOnUse" cx="450.908936" cy="189.579361" fx="450.908936" fy="189.579361" r="21.166656" gradientTransform="matrix(0.000000130628,0.0585994,-0.105479,0.0000000761539,39.097985,-5.64561)">
<stop offset="0" style="stop-color:rgb(0%,0%,0%);stop-opacity:0.313726;"/>
<stop offset="0.222222" style="stop-color:rgb(0%,0%,0%);stop-opacity:0.27451;"/>
<stop offset="1" style="stop-color:rgb(0%,0%,0%);stop-opacity:0;"/>
</radialGradient>
<linearGradient id="linear1" gradientUnits="userSpaceOnUse" x1="169.333328" y1="233.5" x2="169.333328" y2="-168.666656" gradientTransform="matrix(0.0468795,0,0,0.0468795,0,10.079087)">
<stop offset="0" style="stop-color:rgb(16.078432%,71.372551%,96.470588%);stop-opacity:1;"/>
<stop offset="1" style="stop-color:rgb(30.980393%,76.47059%,96.862745%);stop-opacity:1;"/>
</linearGradient>
<linearGradient id="linear2" gradientUnits="userSpaceOnUse" x1="254" y1="233.5" x2="254" y2="-168.666656" gradientTransform="matrix(0.0468795,0,0,0.0468795,0,10.079087)">
<stop offset="0" style="stop-color:rgb(36.078432%,41.960785%,75.294119%);stop-opacity:1;"/>
<stop offset="1" style="stop-color:rgb(47.450981%,52.549022%,79.607844%);stop-opacity:1;"/>
</linearGradient>
</defs>
<g id="surface1">
<path style=" stroke:none;fill-rule:nonzero;fill:url(#linear0);" d="M 4.464844 20.953125 L 19.347656 20.953125 L 19.347656 22.054688 L 4.464844 22.054688 Z M 4.464844 20.953125 "/>
<path style=" stroke:none;fill-rule:nonzero;fill:url(#radial0);" d="M 19.347656 21.027344 L 21.335938 21.027344 L 21.335938 20.03125 L 19.347656 20.03125 Z M 19.347656 21.027344 "/>
<path style=" stroke:none;fill-rule:nonzero;fill:url(#radial1);" d="M 4.464844 21.027344 L 2.480469 21.027344 L 2.480469 22.019531 L 4.464844 22.019531 Z M 4.464844 21.027344 "/>
<path style=" stroke:none;fill-rule:nonzero;fill:url(#radial2);" d="M 4.464844 21.027344 L 2.480469 21.027344 L 2.480469 20.03125 L 4.464844 20.03125 Z M 4.464844 21.027344 "/>
<path style=" stroke:none;fill-rule:nonzero;fill:url(#radial3);" d="M 19.347656 21.027344 L 21.335938 21.027344 L 21.335938 22.019531 L 19.347656 22.019531 Z M 19.347656 21.027344 "/>
<path style=" stroke:none;fill-rule:nonzero;fill:url(#linear1);" d="M 3.472656 2.171875 L 20.339844 2.171875 C 20.890625 2.171875 21.335938 2.617188 21.335938 3.164062 L 21.335938 20.03125 C 21.335938 20.582031 20.890625 21.027344 20.339844 21.027344 L 3.472656 21.027344 C 2.925781 21.027344 2.480469 20.582031 2.480469 20.03125 L 2.480469 3.164062 C 2.480469 2.617188 2.925781 2.171875 3.472656 2.171875 Z M 3.472656 2.171875 "/>
<path style=" stroke:none;fill-rule:nonzero;fill:rgb(90.196079%,90.196079%,90.196079%);fill-opacity:0.392157;" d="M 3.472656 2.171875 C 2.921875 2.171875 2.480469 2.613281 2.480469 3.164062 L 2.480469 3.289062 C 2.480469 2.738281 2.921875 2.296875 3.472656 2.296875 L 20.339844 2.296875 C 20.890625 2.296875 21.335938 2.738281 21.335938 3.289062 L 21.335938 3.164062 C 21.335938 2.613281 20.890625 2.171875 20.339844 2.171875 Z M 3.472656 2.171875 "/>
<path style=" stroke:none;fill-rule:nonzero;fill:rgb(0%,0%,0%);fill-opacity:0.196078;" d="M 3.472656 21.027344 C 2.921875 21.027344 2.480469 20.582031 2.480469 20.03125 L 2.480469 19.910156 C 2.480469 20.457031 2.921875 20.902344 3.472656 20.902344 L 20.339844 20.902344 C 20.890625 20.902344 21.335938 20.457031 21.335938 19.910156 L 21.335938 20.03125 C 21.335938 20.582031 20.890625 21.027344 20.339844 21.027344 Z M 3.472656 21.027344 "/>
<path style="fill:none;stroke-width:3;stroke-linecap:round;stroke-linejoin:miter;stroke:rgb(12.941177%,12.941177%,12.941177%);stroke-opacity:1;stroke-miterlimit:4;" d="M 74.076259 -168.671091 L 433.875234 -168.671091 C 445.624112 -168.671091 455.123205 -159.171998 455.123205 -147.506445 L 455.123205 212.292529 C 455.123205 224.041407 445.624112 233.5405 433.875234 233.5405 L 74.076259 233.5405 C 62.410707 233.5405 52.911614 224.041407 52.911614 212.292529 L 52.911614 -147.506445 C 52.911614 -159.171998 62.410707 -168.671091 74.076259 -168.671091 Z M 74.076259 -168.671091 " transform="matrix(0.0468795,0,0,0.0468795,0,10.079087)"/>
<path style=" stroke:none;fill-rule:nonzero;fill:url(#linear2);" d="M 6.019531 15.835938 C 4.042969 15.320312 3.226562 13.820312 3.675781 11.542969 C 4.222656 8.769531 6.160156 7.230469 9.09375 7.246094 C 13.515625 7.261719 14.835938 7.351562 14.808594 7.625 C 14.785156 7.863281 14.757812 7.882812 14.417969 7.921875 C 13.917969 7.976562 13.914062 7.878906 14.539062 10.8125 C 15.097656 13.429688 15.152344 13.617188 15.347656 13.40625 C 15.59375 13.136719 18.597656 8.074219 18.550781 8 C 18.523438 7.957031 18.320312 7.921875 18.097656 7.921875 C 17.675781 7.921875 17.648438 7.890625 17.746094 7.535156 C 17.796875 7.335938 20.230469 7.230469 20.230469 7.425781 C 20.230469 7.730469 20.058594 7.921875 19.789062 7.921875 C 19.417969 7.921875 19.488281 7.816406 17.238281 11.566406 C 14.414062 16.269531 14.78125 15.796875 13.984375 15.769531 C 13.242188 15.742188 13.394531 16.164062 12.40625 11.445312 C 11.804688 8.585938 11.152344 7.800781 9.378906 7.800781 C 7.363281 7.800781 6.054688 9.691406 5.917969 12.804688 C 5.824219 14.992188 7.046875 15.925781 9.019531 15.164062 C 9.546875 14.960938 9.5625 14.933594 9.792969 13.792969 C 10.050781 12.519531 10.050781 12.507812 9.457031 12.507812 C 8.996094 12.507812 8.996094 12.507812 9.054688 12.242188 C 9.136719 11.84375 9.121094 11.847656 10.65625 11.871094 C 12.328125 11.898438 12.183594 11.664062 11.792969 13.75 C 11.5 15.304688 11.570312 15.230469 9.910156 15.679688 C 8.964844 15.9375 6.738281 16.027344 6.019531 15.835938 Z M 6.019531 15.835938 "/>
<path style=" stroke:none;fill-rule:nonzero;fill:rgb(100%,100%,100%);fill-opacity:0.392157;" d="M 9.09375 7.289062 C 6.160156 7.273438 4.222656 8.8125 3.675781 11.585938 C 3.589844 12.027344 3.546875 12.4375 3.554688 12.820312 C 3.5625 12.488281 3.601562 12.132812 3.675781 11.757812 C 4.222656 8.984375 6.160156 7.445312 9.09375 7.460938 C 13.195312 7.476562 14.628906 7.554688 14.792969 7.78125 C 14.800781 7.75 14.804688 7.710938 14.808594 7.667969 C 14.835938 7.394531 13.515625 7.308594 9.09375 7.289062 Z M 19.457031 7.367188 C 18.742188 7.367188 17.777344 7.453125 17.746094 7.578125 C 17.703125 7.730469 17.683594 7.824219 17.710938 7.882812 C 17.71875 7.84375 17.730469 7.800781 17.746094 7.75 C 17.792969 7.5625 20.011719 7.457031 20.21875 7.617188 C 20.226562 7.570312 20.230469 7.519531 20.230469 7.46875 C 20.230469 7.394531 19.890625 7.367188 19.457031 7.367188 Z M 18.492188 8.183594 C 18.070312 9.003906 15.570312 13.203125 15.347656 13.449219 C 15.152344 13.660156 15.097656 13.472656 14.539062 10.855469 C 14.238281 9.445312 14.085938 8.738281 14.058594 8.375 C 14.03125 8.664062 14.179688 9.347656 14.539062 11.027344 C 15.097656 13.648438 15.152344 13.832031 15.347656 13.621094 C 15.59375 13.351562 18.597656 8.289062 18.550781 8.21875 C 18.542969 8.203125 18.523438 8.195312 18.492188 8.183594 Z M 9.851562 11.90625 C 9.125 11.910156 9.117188 11.976562 9.054688 12.285156 C 9.027344 12.402344 9.015625 12.464844 9.042969 12.503906 C 9.046875 12.488281 9.050781 12.472656 9.054688 12.457031 C 9.136719 12.058594 9.121094 12.0625 10.65625 12.089844 C 11.648438 12.105469 12.003906 12.027344 12.042969 12.402344 C 12.085938 11.832031 11.78125 11.933594 10.65625 11.914062 C 10.320312 11.910156 10.058594 11.90625 9.851562 11.90625 Z M 9.953125 12.933594 C 9.9375 13.125 9.878906 13.40625 9.792969 13.835938 C 9.5625 14.976562 9.546875 15.003906 9.019531 15.207031 C 7.148438 15.929688 5.949219 15.125 5.914062 13.171875 C 5.882812 15.25 7.09375 16.121094 9.019531 15.378906 C 9.546875 15.175781 9.5625 15.148438 9.792969 14.007812 C 9.910156 13.425781 9.976562 13.105469 9.953125 12.933594 Z M 9.953125 12.933594 "/>
<path style=" stroke:none;fill-rule:nonzero;fill:rgb(0%,0%,0%);fill-opacity:0.235294;" d="M 20.160156 7.804688 C 20.085938 7.929688 19.957031 8.003906 19.789062 8.003906 C 19.417969 8.003906 19.488281 7.898438 17.238281 11.648438 C 14.414062 16.351562 14.78125 15.878906 13.984375 15.851562 C 13.242188 15.824219 13.394531 16.246094 12.40625 11.527344 C 11.804688 8.667969 11.152344 7.882812 9.378906 7.882812 C 7.363281 7.882812 6.054688 9.773438 5.917969 12.886719 C 5.914062 13.027344 5.914062 13.164062 5.917969 13.292969 C 5.917969 13.273438 5.917969 13.253906 5.917969 13.234375 C 6.054688 10.121094 7.363281 8.230469 9.378906 8.230469 C 11.152344 8.230469 11.804688 9.015625 12.40625 11.875 C 13.394531 16.59375 13.242188 16.171875 13.984375 16.199219 C 14.78125 16.226562 14.414062 16.699219 17.238281 11.996094 C 19.488281 8.246094 19.417969 8.351562 19.789062 8.351562 C 20.058594 8.351562 20.230469 8.160156 20.230469 7.855469 C 20.230469 7.835938 20.207031 7.816406 20.160156 7.804688 Z M 14.71875 7.9375 C 14.664062 7.972656 14.574219 7.984375 14.417969 8.003906 C 14.136719 8.035156 14.011719 8.015625 14.070312 8.523438 C 14.109375 8.371094 14.226562 8.371094 14.417969 8.351562 C 14.757812 8.3125 14.785156 8.292969 14.808594 8.050781 C 14.8125 8.011719 14.785156 7.972656 14.71875 7.9375 Z M 17.746094 7.960938 C 17.648438 8.320312 17.675781 8.351562 18.097656 8.351562 C 18.214844 8.351562 18.324219 8.359375 18.410156 8.375 C 18.503906 8.203125 18.558594 8.09375 18.550781 8.082031 C 18.523438 8.039062 18.320312 8.003906 18.097656 8.003906 C 17.910156 8.003906 17.800781 7.996094 17.746094 7.960938 Z M 12.03125 12.550781 C 11.996094 12.828125 11.902344 13.234375 11.792969 13.832031 C 11.5 15.382812 11.570312 15.308594 9.910156 15.761719 C 8.964844 16.015625 6.738281 16.109375 6.019531 15.917969 C 4.453125 15.507812 3.617188 14.484375 3.558594 12.945312 C 3.496094 14.675781 4.339844 15.828125 6.019531 16.265625 C 6.738281 16.457031 8.964844 16.363281 9.910156 16.109375 C 11.570312 15.65625 11.5 15.730469 11.792969 14.179688 C 11.964844 13.257812 12.089844 12.789062 12.03125 12.550781 Z M 9.078125 12.566406 C 9.070312 12.597656 9.0625 12.632812 9.054688 12.671875 C 8.996094 12.9375 8.996094 12.9375 9.457031 12.9375 C 9.742188 12.9375 9.890625 12.941406 9.941406 13.085938 C 10.007812 12.59375 9.886719 12.589844 9.457031 12.589844 C 9.246094 12.589844 9.132812 12.589844 9.078125 12.566406 Z M 9.078125 12.566406 "/>
<path style="fill:none;stroke-width:3;stroke-linecap:butt;stroke-linejoin:miter;stroke:rgb(12.941177%,12.941177%,12.941177%);stroke-opacity:1;stroke-miterlimit:4;" d="M 128.404405 122.801075 C 86.241764 111.802125 68.826761 79.805181 78.409179 31.226487 C 90.074732 -27.934531 131.404118 -60.764729 193.981476 -60.431427 C 288.305802 -60.098126 316.469779 -58.181642 315.886501 -52.348866 C 315.386549 -47.266018 314.803271 -46.849391 307.553963 -46.016137 C 296.888315 -44.849582 296.80499 -46.932716 310.13705 15.644641 C 322.052579 71.472643 323.219134 75.472261 327.385403 70.972691 C 332.634902 65.22324 396.712116 -42.766447 395.712211 -44.34963 C 395.128934 -45.266209 390.796014 -46.016137 386.046468 -46.016137 C 377.047327 -46.016137 376.464049 -46.68274 378.547184 -54.265349 C 379.630414 -58.514944 431.542123 -60.764729 431.542123 -56.59846 C 431.542123 -50.099081 427.875807 -46.016137 422.126356 -46.016137 C 414.210445 -46.016137 415.710302 -48.265922 367.714885 31.726439 C 307.470638 132.050192 315.303223 121.967821 298.304847 121.384544 C 282.473025 120.801266 285.722715 129.800407 264.641395 29.143352 C 251.809287 -31.850823 237.893949 -48.599224 200.064228 -48.599224 C 157.068334 -48.599224 129.154333 -8.269742 126.237945 58.140583 C 124.238136 104.802794 150.318979 124.717559 192.398294 108.46911 C 203.647219 104.136191 203.980521 103.552913 208.896718 79.221903 C 214.396193 52.057831 214.396193 51.807854 201.730736 51.807854 C 191.898341 51.807854 191.898341 51.807854 193.148222 46.141729 C 194.898055 37.642541 194.564753 37.725866 227.311626 38.225818 C 262.974887 38.809096 259.891848 33.809573 251.559311 78.305324 C 245.309907 111.468824 246.809764 109.885642 211.396479 119.46806 C 191.231738 124.967535 143.736274 126.884018 128.404405 122.801075 Z M 128.404405 122.801075 " transform="matrix(0.0468795,0,0,0.0468795,0,10.079087)"/>
</g>
</svg>
